public/train-bullets/g.svg

<?xml version="1.0" standalone="no"?>
<!DOCTYPE svg PUBLIC "-//W3C//DTD SVG 1.1//EN" "http://www.w3.org/Graphics/SVG/1.1/DTD/svg11.dtd">
<svg width="100%" height="100%" viewBox="0 0 90 90" version="1.1" xmlns="http://www.w3.org/2000/svg" xmlns:xlink="http://www.w3.org/1999/xlink" xml:space="preserve" style="fill-rule:evenodd;clip-rule:evenodd;stroke-linejoin:round;stroke-miterlimit:1.41421;">
    <g id="G">
        <circle cx="45" cy="45" r="45" style="fill:rgb(109,190,69);"/>
        <path d="M56.4095,35.9831C55.65,32.7062 53.7945,30.4167 50.8431,29.1146C49.1938,28.3984 47.36,28.0404 45.3418,28.0404C41.4789,28.0404 38.3051,29.4998 35.8203,32.4186C33.3355,35.3375 32.0931,39.7266 32.0931,45.5859C32.0931,51.4887 33.4386,55.6662 36.1296,58.1185C38.8205,60.5707 41.8804,61.7969 45.3092,61.7969C48.673,61.7969 51.429,60.8257 53.5775,58.8835C55.7259,56.9412 57.0497,54.3967 57.5488,51.25L46.4486,51.25L46.4486,43.2422L66.4355,43.2422L66.4355,68.9909L59.7949,68.9909L58.7858,63.0013C56.8544,65.2799 55.1183,66.8859 53.5775,67.819C50.9299,69.4466 47.6747,70.2604 43.8118,70.2604C37.4533,70.2604 32.245,68.0577 28.1868,63.6523C23.9551,59.2253 21.8392,53.1706 21.8392,45.4883C21.8392,37.7192 23.9768,31.4909 28.252,26.8034C32.5271,22.1159 38.1803,19.7721 45.2116,19.7721C51.3097,19.7721 56.2088,21.3184 59.9089,24.4108C63.6089,27.5033 65.7303,31.3607 66.2728,35.9831L56.4095,35.9831Z" style="fill:white;fill-rule:nonzero;"/>
    </g>
</svg>

<svg xmlns="http://www.w3.org/2000/svg" xml:space="preserve" style="fill-rule:evenodd;clip-rule:evenodd;stroke-linejoin:round;stroke-miterlimit:1.41421" viewBox="0 0 90 90"><circle cx="45" cy="45" r="45" style="fill:#6dbe45"/><path d="M56.41 35.983q-1.14-4.915-5.567-6.868-2.474-1.075-5.501-1.075-5.795 0-9.522 4.379-3.726 4.379-3.727 13.167 0 8.854 4.037 12.532 4.035 3.68 9.18 3.679 5.045 0 8.267-2.913 3.224-2.914 3.972-7.634h-11.1v-8.008h19.987v25.749h-6.641L58.785 63q-2.896 3.418-5.207 4.818-3.972 2.442-9.766 2.441-9.538 0-15.625-6.608-6.348-6.64-6.348-18.164 0-11.653 6.413-18.685 6.412-7.03 16.96-7.03 9.147 0 14.697 4.638 5.55 4.639 6.364 11.572z" style="fill:#fff;fill-rule:nonzero"/></svg>
